build/Karasa-Jaga/scalable/status/audio-input-microphone-muted-symbolic.svg

<svg height="16.001" width="16" xmlns="http://www.w3.org/2000/svg"><g fill="#bebebe"><g opacity=".35" transform="matrix(1.0498069 0 0 1.0498069 -.232089 -.38687)"><path d="m4.6896796.96102052c-1.9716772 0-3.5657623 1.54817808-3.6489321 3.49938558h-.35891133v1.286099h.53836703c.00413.012648.023138.018234.029909.029909h6.9090435c.00297-.00865-.00287-.021229 0-.029909.00163-.00394.028244.00394.029909 0h.4486397v-1.286099h-.2990928c-.0818892-1.9523896-1.6764051-3.49938558-3.648932-3.49938558zm0 .71969188c1.5958706 0 2.8630913 1.2324921 2.9292401 2.809603a.72046651.72046651 0 0 0 .2990928.555191v.011216h-6.475359a.72046651.72046651 0 0 0 .317786-.5664072c.067181-1.5761108 1.3346696-2.809603 2.9292401-2.8096028z"/><path d="m1.5641598 5.9000624c.2504839.495435.5506384 1.0000604.8374598 1.495464l-.1196371.0299093.3290021.6879134.6879134 6.1314019c.085785.208552.3173877.218204.4785485.329002h1.824466c.2356507-.0025.322937-.22202.4785485-.329002l.6879134-6.1314019.3290021-.6879134-.1794557-.0299093c.3205528-.4800011.5822116-.9838393.8374598-1.495464zm.9664435.566407h4.2602035c-.1143903.2035238-.2161526.4236333-.3439571.6150096a.56624305.56624305 0 0 0 -.0579493.5121963l-.1308531.2747916a.56624305.56624305 0 0 0 -.052341.181325l-.6654817 5.9313831c-.00494.006-.024236.02164-.02804.02617h-1.6132317c-.01856-.0075-.045952-.02481-.059819-.02991l-.665481-5.9276431a.56624305.56624305 0 0 0 -.0523413-.181325l-.1682396-.3514341a.56624305.56624305 0 0 0 -.0616879-.4056445c-.1270008-.2193582-.2368443-.4285045-.3607808-.6449189z"/></g><path d="m9.591983 13.092998h5.000001v1.819759h-5.000001z" opacity=".35"/><path d="m9.591983 9.681228h5.000001v1.819759h-5.000001z" opacity=".35"/><path d="m9.591983 6.269457h5.000001v1.819759h-5.000001z" opacity=".35"/><path d="m9.591983 2.857132h5.000001v1.819759h-5.000001z" opacity=".35"/></g><g fill="#555" transform="translate(-405.00027 216.92432)"><path d="m407.34402-414.0625 12.71875 12.71875-1.40625 1.40625-12.71875-12.71875z"/><path d="m413.0002-415c-1.24595 0-2.31105.7515-2.76562 1.82813-.00023.00053.00022.001 0 .002l5.76562 5.76362v-4.59375c0-1.66208-1.33792-3-3-3zm-3 4.40625v3.59375c0 1.66208 1.33791 3 3 3 .98363 0 1.84418-.47608 2.39062-1.20312zm-3 2.59375v1c0 2.96947 2.16237 5.43216 5 5.90625v2.09375h2v-2.09375c1.39887-.23371 2.63093-.95383 3.52344-1.97656l-1.41797-1.41797c-.72909.90441-1.8347 1.48828-3.10547 1.48828-2.23342 0-4-1.76659-4-4v-1zm10 0v1c0 .18587-.029.36236-.0527.54102l1.63671 1.63671c.26447-.6756.41599-1.4083.41599-2.17773v-1z"/></g></svg>

<?xml version="1.0" encoding="UTF-8" standalone="no"?>
<!-- Created with Inkscape (http://www.inkscape.org/) -->

<svg
   xmlns:osb="http://www.openswatchbook.org/uri/2009/osb"
   xmlns:dc="http://purl.org/dc/elements/1.1/"
   xmlns:cc="http://creativecommons.org/ns#"
   xmlns:rdf="http://www.w3.org/1999/02/22-rdf-syntax-ns#"
   xmlns:svg="http://www.w3.org/2000/svg"
   xmlns="http://www.w3.org/2000/svg"
   xmlns:sodipodi="http://sodipodi.sourceforge.net/DTD/sodipodi-0.dtd"
   xmlns:inkscape="http://www.inkscape.org/namespaces/inkscape"
   id="svg7384"
   height="16.001"
   width="16"
   version="1.1"
   inkscape:version="0.92.2 (unknown)"
   sodipodi:docname="audio-input-microphone-muted-symbolic.svg">
  <sodipodi:namedview
     pagecolor="#ffffff"
     bordercolor="#666666"
     borderopacity="1"
     objecttolerance="10"
     gridtolerance="10"
     guidetolerance="10"
     inkscape:pageopacity="0"
     inkscape:pageshadow="2"
     inkscape:window-width="1366"
     inkscape:window-height="716"
     id="namedview4772"
     showgrid="false"
     inkscape:zoom="14.749078"
     inkscape:cx="10.801155"
     inkscape:cy="7.9322132"
     inkscape:window-x="0"
     inkscape:window-y="27"
     inkscape:window-maximized="1"
     inkscape:current-layer="svg7384"
     showguides="false">
    <sodipodi:guide
       position="-351.32219,144.97793"
       orientation="1,0"
       id="guide1040"
       inkscape:locked="false" />
  </sodipodi:namedview>
  <metadata
     id="metadata90">
    <rdf:RDF>
      <cc:Work
         rdf:about="">
        <dc:format>image/svg+xml</dc:format>
        <dc:type
           rdf:resource="http://purl.org/dc/dcmitype/StillImage" />
        <dc:title>Gnome Symbolic Icon Theme</dc:title>
      </cc:Work>
    </rdf:RDF>
  </metadata>
  <title
     id="title9167">Gnome Symbolic Icon Theme</title>
  <defs
     id="defs7386">
    <clipPath
       id="clipPath6810-7"
       clipPathUnits="userSpaceOnUse">
      <rect
         id="rect6812-2"
         style="stroke-linejoin:round;color:#bebebe;stroke:#fff;stroke-linecap:round;stroke-width:2;fill:none"
         height="11"
         width="14"
         y="281"
         x="21" />
    </clipPath>
    <linearGradient
       x1="15"
       y1="2"
       x2="15"
       y2="21"
       id="linearGradient3696"
       gradientUnits="userSpaceOnUse">
      <stop
         id="stop3700"
         style="stop-color:#eeeeec;stop-opacity:1"
         offset="0" />
      <stop
         id="stop3702"
         style="stop-color:#babdb6;stop-opacity:1"
         offset="0.79220003" />
      <stop
         id="stop3704"
         style="stop-color:#a1a59b;stop-opacity:1"
         offset="1" />
    </linearGradient>
    <linearGradient
       x1="22.146999"
       y1="15.722"
       x2="22.402"
       y2="34.612"
       id="linearGradient4117"
       gradientUnits="userSpaceOnUse">
      <stop
         id="stop4113"
         style="stop-color:#ffffff;stop-opacity:1"
         offset="0" />
      <stop
         id="stop4115"
         style="stop-color:#ffffff;stop-opacity:0"
         offset="1" />
    </linearGradient>
    <linearGradient
       id="linearGradient5841">
      <stop
         id="stop5843"
         style="stop-color:#37e700;stop-opacity:1"
         offset="0" />
      <stop
         id="stop5849"
         style="stop-color:#3dfe00;stop-opacity:1"
         offset="0.5" />
      <stop
         id="stop5845"
         style="stop-color:#2aad00;stop-opacity:1"
         offset="1" />
    </linearGradient>
    <clipPath
       id="clipPath6810-7-6"
       clipPathUnits="userSpaceOnUse">
      <rect
         id="rect6812-2-2"
         style="stroke-linejoin:round;color:#bebebe;stroke:#fff;stroke-linecap:round;stroke-width:2;fill:none"
         height="11"
         width="14"
         y="281"
         x="21" />
    </clipPath>
    <linearGradient
       osb:paint="solid"
       id="linearGradient5606">
      <stop
         style="stop-color:#000000;stop-opacity:1;"
         offset="0"
         id="stop5608" />
    </linearGradient>
  </defs>
  <g
     id="g904"
     transform="matrix(1.0498069,0,0,1.0498069,-0.23208887,-0.38686972)"
     style="opacity:0.35">
    <path
       inkscape:connector-curvature="0"
       id="path4868"
       d="m 4.6896796,0.96102052 c -1.9716772,0 -3.5657623,1.54817808 -3.6489321,3.49938558 H 0.68183617 v 1.286099 H 1.2202032 c 0.00413,0.012648 0.023138,0.018234 0.029909,0.029909 h 6.9090435 c 0.00297,-0.00865 -0.00287,-0.021229 0,-0.029909 0.00163,-0.00394 0.028244,0.00394 0.029909,0 H 8.6377044 V 4.4604061 H 8.3386116 C 8.2567224,2.5080165 6.6622065,0.96102052 4.6896796,0.96102052 Z m 0,0.71969188 c 1.5958706,0 2.8630913,1.2324921 2.9292401,2.809603 a 0.72046651,0.72046651 0 0 0 0.2990928,0.555191 v 0.011216 H 1.4426535 A 0.72046651,0.72046651 0 0 0 1.7604395,4.4903152 C 1.8276205,2.9142044 3.0951091,1.6807122 4.6896796,1.6807124 Z"
       style="fill:#bebebe;fill-opacity:1;stroke:none;stroke-width:0.95709693" />
    <path
       inkscape:connector-curvature="0"
       id="path815"
       d="m 1.5641598,5.9000624 c 0.2504839,0.495435 0.5506384,1.0000604 0.8374598,1.495464 L 2.2819825,7.4254357 2.6109846,8.1133491 3.298898,14.244751 c 0.085785,0.208552 0.3173877,0.218204 0.4785485,0.329002 h 1.824466 c 0.2356507,-0.0025 0.322937,-0.22202 0.4785485,-0.329002 L 6.7683744,8.1133491 7.0973765,7.4254357 6.9179208,7.3955264 C 7.2384736,6.9155253 7.5001324,6.4116871 7.7553806,5.9000624 Z m 0.9664435,0.566407 H 6.7908068 C 6.6764165,6.6699932 6.5746542,6.8901027 6.4468497,7.081479 A 0.56624305,0.56624305 0 0 0 6.3889004,7.5936753 L 6.2580473,7.8684669 a 0.56624305,0.56624305 0 0 0 -0.052341,0.181325 L 5.5402246,13.981175 c -0.00494,0.006 -0.024236,0.02164 -0.02804,0.02617 H 3.8989529 c -0.01856,-0.0075 -0.045952,-0.02481 -0.059819,-0.02991 L 3.1736529,8.0497919 A 0.56624305,0.56624305 0 0 0 3.1213116,7.8684669 L 2.953072,7.5170328 A 0.56624305,0.56624305 0 0 0 2.8913841,7.1113883 C 2.7643833,6.8920301 2.6545398,6.6828838 2.5306033,6.4664694 Z"
       style="fill:#bebebe;fill-opacity:1;stroke:none;stroke-width:0.95709693" />
  </g>
  <g
     id="g910"
     transform="translate(0,0.63019126)">
    <rect
       y="12.462807"
       x="9.5919828"
       height="1.8197588"
       width="5.0000005"
       id="rect2988"
       style="fill:#bebebe;fill-opacity:1;stroke:none;stroke-width:0.95387602;opacity:0.35" />
    <rect
       style="fill:#bebebe;fill-opacity:1;stroke:none;stroke-width:0.95387602;opacity:0.35"
       id="rect2990"
       width="5.0000005"
       height="1.8197588"
       x="9.5919828"
       y="9.0510368" />
    <rect
       y="5.639266"
       x="9.5919828"
       height="1.8197588"
       width="5.0000005"
       id="rect2992"
       style="fill:#bebebe;fill-opacity:1;stroke:none;stroke-width:0.95387602;opacity:0.35" />
    <rect
       style="fill:#bebebe;fill-opacity:1;stroke:none;stroke-width:0.95387602;opacity:0.35"
       id="rect2994"
       width="5.0000005"
       height="1.8197588"
       x="9.5919828"
       y="2.2269411" />
  </g>
  <g
     id="layer9"
     inkscape:label="status"
     style="display:inline"
     transform="translate(-405.00027,216.92432)">
    <path
       inkscape:connector-curvature="0"
       d="m 407.34402,-414.0625 12.71875,12.71875 -1.40625,1.40625 -12.71875,-12.71875 z"
       id="path6532"
       sodipodi:nodetypes="ccccc"
       style="color:#000000;display:inline;overflow:visible;visibility:visible;fill:#555555;fill-opacity:1;fill-rule:nonzero;stroke:none;stroke-width:1;marker:none;enable-background:accumulate" />
    <path
       inkscape:connector-curvature="0"
       d="m 413.0002,-415 c -1.24595,0 -2.31105,0.7515 -2.76562,1.82813 -2.3e-4,5.3e-4 2.2e-4,0.001 0,0.002 l 5.76562,5.76362 V -412 c 0,-1.66208 -1.33792,-3 -3,-3 z m -3,4.40625 V -407 c 0,1.66208 1.33791,3 3,3 0.98363,0 1.84418,-0.47608 2.39062,-1.20312 z m -3,2.59375 v 1 c 0,2.96947 2.16237,5.43216 5,5.90625 V -399 h 2 v -2.09375 c 1.39887,-0.23371 2.63093,-0.95383 3.52344,-1.97656 l -1.41797,-1.41797 c -0.72909,0.90441 -1.8347,1.48828 -3.10547,1.48828 -2.23342,0 -4,-1.76659 -4,-4 v -1 z m 10,0 v 1 c 0,0.18587 -0.029,0.36236 -0.0527,0.54102 l 1.63671,1.63671 c 0.26447,-0.6756 0.41599,-1.4083 0.41599,-2.17773 v -1 z"
       id="path6829"
       sodipodi:nodetypes="scccsscsscccsccccccsscccsccscc"
       style="color:#bebebe;display:inline;overflow:visible;visibility:visible;fill:#555555;fill-opacity:1;fill-rule:nonzero;stroke:none;stroke-width:2;marker:none" />
  </g>
  <g
     id="layer1"
     inkscape:label="places"
     style="display:inline"
     transform="translate(24.66334,-400.07568)" />
  <g
     id="layer14"
     inkscape:label="mimetypes"
     style="display:inline"
     transform="translate(-216.33686,216.92432)" />
  <g
     id="layer15"
     inkscape:label="emblems"
     style="display:inline"
     transform="translate(-216.33686,216.92432)" />
  <g
     id="g71291"
     inkscape:label="emotes"
     style="display:inline"
     transform="translate(-216.33686,216.92432)" />
  <g
     id="layer2"
     inkscape:label="categories"
     style="display:inline"
     transform="translate(24.66334,-250.07568)" />
  <g
     id="g6058"
     inkscape:label="apps"
     style="display:inline"
     transform="translate(24.66334,-250.07568)" />
  <g
     id="layer12"
     inkscape:label="actions"
     style="display:inline"
     transform="translate(-216.33686,216.92432)" />
</svg>
